layouts/partials/svg/focus.svg

<svg xmlns="http://www.w3.org/2000/svg" fill-rule="evenodd" stroke-linecap="round" stroke-miterlimit="10" class="focus-row-icon" clip-rule="evenodd" viewBox="0 0 60 60"><path fill="none" stroke="#00a88a" stroke-width="2" d="M30.028 1v10m0 0l4-4m-4 4l-4-4m4 52V49m0 0l-4 4m4-4l4 4"/><path fill="#e7eced" fill-rule="nonzero" d="M57.972 29.642l-7.234 7.234c-11.517 11.517-30.19 11.517-41.707 0l-7.004-7.004 7.234-7.234c11.517-11.517 30.19-11.517 41.707 0l7.004 7.004z"/><circle cx="29.67" cy="29.783" r="11.813" fill="#0083c0"/><path fill="#fff" fill-rule="nonzero" d="M22.857 31a1 1 0 0 1-1-1c0-3.86 3.14-7 7-7a1 1 0 0 1 0 2c-2.757 0-5 2.243-5 5a1 1 0 0 1-1 1z"/></svg>

<svg id="focus-icon" class="focus-row-icon" width="100%" height="100%" viewBox="0 0 60 60" version="1.1" xmlns="http://www.w3.org/2000/svg" xmlns:xlink="http://www.w3.org/1999/xlink" xml:space="preserve" style="fill-rule:evenodd;clip-rule:evenodd;stroke-linecap:round;stroke-miterlimit:10;">
    <path d="M30.028,1L30.028,11" style="fill:none;stroke:rgb(0,168,138);stroke-width:2px;"/>
    <path d="M30.028,11L34.028,7" style="fill:none;stroke:rgb(0,168,138);stroke-width:2px;"/>
    <path d="M30.028,11L26.028,7" style="fill:none;stroke:rgb(0,168,138);stroke-width:2px;"/>
    <path d="M30.028,59L30.028,49" style="fill:none;stroke:rgb(0,168,138);stroke-width:2px;"/>
    <path d="M30.028,49L26.028,53" style="fill:none;stroke:rgb(0,168,138);stroke-width:2px;"/>
    <path d="M30.028,49L34.028,53" style="fill:none;stroke:rgb(0,168,138);stroke-width:2px;"/>
    <path d="M57.972,29.642L50.738,36.876C39.221,48.393 20.548,48.393 9.031,36.876L2.027,29.872L9.261,22.638C20.778,11.121 39.451,11.121 50.968,22.638L57.972,29.642Z" style="fill:rgb(231,236,237);fill-rule:nonzero;"/>
    <circle cx="29.67" cy="29.783" r="11.813" style="fill:rgb(0,131,192);"/>
    <path d="M22.857,31C22.305,31 21.857,30.552 21.857,30C21.857,26.14 24.997,23 28.857,23C29.409,23 29.857,23.448 29.857,24C29.857,24.552 29.409,25 28.857,25C26.1,25 23.857,27.243 23.857,30C23.857,30.552 23.41,31 22.857,31Z" style="fill:white;fill-rule:nonzero;"/>
</svg>
